X: 1
T: Juniper Jig  [ABABC]
C: Charles F Sherrit
B: RSCDS 45-8
R: Jig
M: 6/8
K: A
L: 1/8
e "A"|\
| "A"aga ecA | "D"FAd fed | "A"cee "F#m"Acc | "Bm"Bcd "E7"efg |\
| "A"aga ecA | "D"FAd "Bm"fed | "A"cec "E7"dBG | "A"A3 A2 ||
=G "B"|\
| "D"FAd fed | "D"fed agf | "A"ecA EAc | "A"EAc "B7"cBA |\
| "E"GBB EBB | "E"GBB E2B | "A"AGA "E7"BAB | "A"c3 :|
"A7"AG=G "C"|\
| "D"FAd fed | "D"fed agf | "A"ecA EAc | "A"EAc "B7"cBA |\
| "E"GBB EBB | "E"GBB E2f | "E7"gfe dcB | "A"A3 A2 |]
